; generated by PrusaSlicer 2.3.1+linux-x64 on 2021-06-08 at 15:35:14 UTC


;
;

;
;
; 

; external perimeters extrusion width = 0.45mm
; perimeters extrusion width = 0.45mm
; infill extrusion width = 0.45mm
; solid infill extrusion width = 0.45mm
; top infill extrusion width = 0.40mm
; first layer extrusion width = 0.42mm

M73 P0 R81
M201 X1250 Y1250 Z400 E5000 ; sets maximum accelerations, mm/sec^2
M203 X180 Y180 Z12 E80 ; sets maximum feedrates, mm/sec
M204 P1250 R1250 T1250 ; sets acceleration (P, T) and retract acceleration (R), mm/sec^2
M205 X8.00 Y8.00 Z2.00 E10.00 ; sets the jerk limits, mm/sec
M205 S0 T0 ; sets the minimum extruding and travel feed rate, mm/sec
M107
;TYPE:Custom
G90 ; use absolute coordinates
M83 ; extruder relative mode
M104 S170 ; set extruder temp for bed leveling
M140 S60 ; set bed temp
M109 R170 ; wait for bed leveling temp
M190 S60 ; wait for bed temp
G28 ; home all without mesh bed level
G29 ; mesh bed leveling 
M104 S215 ; set extruder temp
G92 E0.0
G1 Y-2.0 X179 F2400
G1 Z3 F720
M109 S215 ; wait for extruder temp

; intro line
G1 X170 F1000
G1 Z0.2 F720
G1 X110.0 E8.0 F900
G1 X40.0 E10.0 F700
G92 E0.0

M221 S95 ; set flow
G21 ; set units to millimeters
G90 ; use absolute coordinates
M83 ; use relative distances for extrusion
M900 K0.2 ; Filament gcode LA 1.5
; ; Filament gcode LA 1.0
;LAYER_CHANGE
;Z:0.2
;HEIGHT:0.2
;BEFORE_LAYER_CHANGE
G92 E0.0
;0.2


G1 E-3.20000 F4200.000
G1 Z0.200 F9000.000
;AFTER_LAYER_CHANGE
;0.2
G1 Z0.400
G1 X111.778 Y59.445
G1 Z0.200
G1 E3.20000 F2400.000
M204 S800
;TYPE:Skirt
;WIDTH:0.42
G1 F1200.000
G1 X112.131 Y58.777 E0.02367
G1 X112.503 Y58.386 E0.01692
G1 X112.953 Y58.089 E0.01692
G1 X113.455 Y57.901 E0.01680
G1 X113.990 Y57.831 E0.01692
G1 X168.033 Y57.831 E1.69448
G1 X168.928 Y58.007 E0.02860
G1 X169.691 Y58.508 E0.02860
G1 X170.207 Y59.256 E0.02849
G1 X170.406 Y60.146 E0.02860
G1 X170.406 Y129.435 E2.17250
G1 X170.281 Y130.183 E0.02378
G1 X169.928 Y130.850 E0.02367
G1 X169.553 Y131.244 E0.01704
G1 X169.099 Y131.542 E0.01704
G1 X168.589 Y131.730 E0.01704
G1 X168.049 Y131.796 E0.01704
G1 X114.010 Y131.796 E1.69436
G1 X113.266 Y131.671 E0.02367
G1 X112.599 Y131.318 E0.02367
G1 X112.205 Y130.943 E0.01704
G1 X111.905 Y130.486 E0.01716
G1 X111.718 Y129.975 E0.01704
G1 X111.652 Y129.436 E0.01704
G1 X111.652 Y60.193 E2.17106
G1 X111.768 Y59.504 E0.02190
M204 S1250
; printing object SolarHolder.stl id:0 copy 0
G1 E-2.24000 F4200.000
;WIPE_START
G1 F7200.000
G1 X112.131 Y58.777 E-0.44996
G1 X112.503 Y58.386 E-0.29909
G1 X112.748 Y58.224 E-0.16295
;WIPE_END
G1 E-0.04800 F4200.000
G1 Z0.400 F9000.000
G1 X144.149 Y99.202
G1 Z0.200
G1 E3.20000 F2400.000
M204 S800
;TYPE:Perimeter
G1 F1200.000
G1 X144.579 Y98.890 E0.01666
G1 X145.064 Y98.674 E0.01666
G1 X145.584 Y98.563 E0.01666
G1 X146.115 Y98.563 E0.01666
G1 X146.635 Y98.674 E0.01666
G1 X147.120 Y98.890 E0.01666
G1 X147.555 Y99.206 E0.01685
G1 X147.931 Y99.642 E0.01806
G1 X148.171 Y100.057 E0.01504
G1 X148.335 Y100.562 E0.01666
G1 X148.391 Y101.091 E0.01666
G1 X148.335 Y101.619 E0.01666
G1 X148.171 Y102.124 E0.01666
G1 X147.905 Y102.584 E0.01666
G1 X147.550 Y102.979 E0.01666
G1 X147.120 Y103.292 E0.01666
G1 X146.635 Y103.508 E0.01666
G1 X146.115 Y103.618 E0.01666
G1 X145.584 Y103.618 E0.01666
G1 X145.064 Y103.508 E0.01666
G1 X144.579 Y103.292 E0.01666
G1 X144.144 Y102.976 E0.01685
G1 X143.767 Y102.540 E0.01806
G1 X143.528 Y102.124 E0.01504
G1 X143.363 Y101.619 E0.01666
G1 X143.308 Y101.091 E0.01666
G1 X143.363 Y100.562 E0.01666
G1 X143.528 Y100.057 E0.01666
G1 X143.793 Y99.597 E0.01666
G1 X144.109 Y99.247 E0.01478
M204 S1250
G1 X144.389 Y99.499 F9000.000
M204 S800
;TYPE:External perimeter
G1 F1200.000
G1 X144.768 Y99.218 E0.01480
G1 X145.181 Y99.034 E0.01417
G1 X145.623 Y98.940 E0.01417
G1 X146.075 Y98.940 E0.01417
G1 X146.518 Y99.034 E0.01417
G1 X146.930 Y99.218 E0.01417
G1 X147.298 Y99.485 E0.01424
M73 P0 R80
G1 X147.622 Y99.861 E0.01557
G1 X147.825 Y100.211 E0.01268
G1 X147.964 Y100.641 E0.01418
G1 X148.012 Y101.091 E0.01417
G1 X147.964 Y101.540 E0.01417
G1 X147.825 Y101.970 E0.01418
G1 X147.599 Y102.362 E0.01417
G1 X147.296 Y102.698 E0.01417
G1 X146.930 Y102.963 E0.01417
G1 X146.518 Y103.147 E0.01417
G1 X146.075 Y103.241 E0.01418
G1 X145.623 Y103.241 E0.01417
G1 X145.181 Y103.147 E0.01417
G1 X144.768 Y102.963 E0.01417
G1 X144.401 Y102.696 E0.01424
G1 X144.076 Y102.320 E0.01557
G1 X143.874 Y101.970 E0.01268
G1 X143.734 Y101.540 E0.01418
G1 X143.687 Y101.091 E0.01417
G1 X143.734 Y100.641 E0.01417
G1 X143.874 Y100.211 E0.01418
G1 X144.100 Y99.820 E0.01417
G1 X144.349 Y99.543 E0.01166
M204 S1250
G1 X144.303 Y99.108 F9000.000
G1 E-2.24000 F4200.000
;WIPE_START
G1 F7200.000
G1 X144.768 Y99.218 E-0.29419
G1 X145.181 Y99.034 E-0.25047
G1 X145.623 Y98.940 E-0.25052
G1 X145.834 Y98.940 E-0.11681
;WIPE_END
G1 E-0.04800 F4200.000
G1 Z0.400 F9000.000
G1 X153.523 Y100.562
G1 Z0.200
G1 E3.20000 F2400.000
M204 S800
;TYPE:Perimeter
G1 F1200.000
G1 X153.688 Y100.057 E0.01666
G1 X153.953 Y99.597 E0.01666
G1 X154.309 Y99.202 E0.01666
G1 X154.739 Y98.890 E0.01666
G1 X155.224 Y98.674 E0.01666
G1 X155.744 Y98.563 E0.01666
G1 X156.275 Y98.563 E0.01666
G1 X156.795 Y98.674 E0.01666
G1 X157.280 Y98.890 E0.01666
G1 X157.715 Y99.206 E0.01685
G1 X158.091 Y99.642 E0.01806
G1 X158.331 Y100.057 E0.01504
G1 X158.495 Y100.562 E0.01666
G1 X158.551 Y101.091 E0.01666
G1 X158.495 Y101.619 E0.01666
G1 X158.331 Y102.124 E0.01666
G1 X158.065 Y102.584 E0.01666
G1 X157.710 Y102.979 E0.01666
G1 X157.280 Y103.292 E0.01666
G1 X156.795 Y103.508 E0.01666
G1 X156.275 Y103.618 E0.01666
G1 X155.744 Y103.618 E0.01666
G1 X155.224 Y103.508 E0.01666
G1 X154.739 Y103.292 E0.01666
G1 X154.309 Y102.979 E0.01666
G1 X153.953 Y102.584 E0.01666
G1 X153.688 Y102.124 E0.01666
G1 X153.523 Y101.619 E0.01666
G1 X153.468 Y101.091 E0.01666
G1 X153.517 Y100.622 E0.01478
M204 S1250
G1 X153.892 Y100.661 F9000.000
M204 S800
;TYPE:External perimeter
G1 F1200.000
G1 X154.034 Y100.211 E0.01480
G1 X154.260 Y99.820 E0.01417
G1 X154.562 Y99.484 E0.01417
G1 X154.928 Y99.218 E0.01417
G1 X155.341 Y99.034 E0.01417
G1 X155.783 Y98.940 E0.01417
G1 X156.235 Y98.940 E0.01417
G1 X156.678 Y99.034 E0.01417
G1 X157.090 Y99.218 E0.01417
G1 X157.458 Y99.485 E0.01424
G1 X157.782 Y99.861 E0.01557
G1 X157.985 Y100.211 E0.01268
G1 X158.124 Y100.641 E0.01418
G1 X158.172 Y101.091 E0.01417
G1 X158.124 Y101.540 E0.01417
G1 X157.985 Y101.970 E0.01418
G1 X157.759 Y102.362 E0.01417
G1 X157.456 Y102.698 E0.01417
G1 X157.090 Y102.963 E0.01417
G1 X156.678 Y103.147 E0.01417
G1 X156.235 Y103.241 E0.01418
G1 X155.783 Y103.241 E0.01417
G1 X155.341 Y103.147 E0.01417
G1 X154.928 Y102.963 E0.01417
G1 X154.562 Y102.698 E0.01417
G1 X154.260 Y102.362 E0.01417
G1 X154.034 Y101.970 E0.01417
G1 X153.894 Y101.540 E0.01418
G1 X153.847 Y101.091 E0.01417
G1 X153.886 Y100.721 E0.01165
M204 S1250
G1 X153.593 Y100.396 F9000.000
G1 E-2.24000 F4200.000
;WIPE_START
G1 F7200.000
G1 X154.034 Y100.211 E-0.29424
G1 X154.260 Y99.820 E-0.25046
G1 X154.562 Y99.484 E-0.25053
G1 X154.733 Y99.360 E-0.11677
;WIPE_END
G1 E-0.04800 F4200.000
G1 Z0.400 F9000.000
G1 X155.744 Y108.723
G1 Z0.200
G1 E3.20000 F2400.000
M204 S800
;TYPE:Perimeter
G1 F1200.000
G1 X156.275 Y108.723 E0.01666
G1 X156.795 Y108.834 E0.01666
G1 X157.280 Y109.050 E0.01666
G1 X157.710 Y109.362 E0.01666
G1 X158.065 Y109.757 E0.01666
G1 X158.331 Y110.217 E0.01666
G1 X158.495 Y110.722 E0.01666
G1 X158.551 Y111.251 E0.01666
G1 X158.495 Y111.779 E0.01666
G1 X158.331 Y112.284 E0.01666
G1 X158.065 Y112.744 E0.01666
G1 X157.710 Y113.139 E0.01666
G1 X157.280 Y113.452 E0.01666
G1 X156.795 Y113.668 E0.01666
G1 X156.275 Y113.778 E0.01666
G1 X155.744 Y113.778 E0.01666
G1 X155.224 Y113.668 E0.01666
G1 X154.739 Y113.452 E0.01666
G1 X154.309 Y113.139 E0.01666
G1 X153.953 Y112.744 E0.01666
G1 X153.688 Y112.284 E0.01666
G1 X153.523 Y111.779 E0.01666
G1 X153.468 Y111.251 E0.01666
G1 X153.523 Y110.722 E0.01666
G1 X153.688 Y110.217 E0.01666
G1 X153.953 Y109.757 E0.01666
G1 X154.309 Y109.362 E0.01666
G1 X154.739 Y109.050 E0.01666
G1 X155.224 Y108.834 E0.01666
G1 X155.685 Y108.736 E0.01478
M204 S1250
G1 X155.763 Y109.104 F9000.000
M204 S800
;TYPE:External perimeter
G1 F1200.000
G1 X156.235 Y109.100 E0.01480
G1 X156.678 Y109.194 E0.01418
G1 X157.090 Y109.378 E0.01417
G1 X157.456 Y109.644 E0.01417
G1 X157.759 Y109.980 E0.01417
G1 X157.985 Y110.371 E0.01417
G1 X158.124 Y110.801 E0.01418
G1 X158.172 Y111.251 E0.01417
G1 X158.124 Y111.700 E0.01417
G1 X157.985 Y112.130 E0.01418
G1 X157.759 Y112.522 E0.01417
G1 X157.456 Y112.858 E0.01417
G1 X157.090 Y113.123 E0.01417
G1 X156.678 Y113.307 E0.01417
G1 X156.235 Y113.401 E0.01418
G1 X155.783 Y113.401 E0.01417
G1 X155.341 Y113.307 E0.01417
G1 X154.928 Y113.123 E0.01417
G1 X154.562 Y112.858 E0.01417
G1 X154.260 Y112.522 E0.01417
G1 X154.034 Y112.130 E0.01417
G1 X153.894 Y111.700 E0.01418
G1 X153.847 Y111.251 E0.01417
G1 X153.894 Y110.801 E0.01417
G1 X154.034 Y110.371 E0.01418
G1 X154.260 Y109.980 E0.01417
G1 X154.562 Y109.644 E0.01417
G1 X154.928 Y109.378 E0.01417
G1 X155.341 Y109.194 E0.01417
G1 X155.705 Y109.117 E0.01166
M204 S1250
G1 X155.924 Y108.738 F9000.000
G1 E-2.24000 F4200.000
;WIPE_START
G1 F7200.000
G1 X156.235 Y109.100 E-0.29419
G1 X156.678 Y109.194 E-0.25053
G1 X157.090 Y109.378 E-0.25047
G1 X157.261 Y109.502 E-0.11681
;WIPE_END
G1 E-0.04800 F4200.000
G1 Z0.400 F9000.000
G1 X155.744 Y118.883
G1 Z0.200
G1 E3.20000 F2400.000
M204 S800
;TYPE:Perimeter
G1 F1200.000
G1 X156.275 Y118.883 E0.01666
G1 X156.795 Y118.994 E0.01666
G1 X157.280 Y119.210 E0.01666
G1 X157.710 Y119.522 E0.01666
G1 X158.065 Y119.917 E0.01666
G1 X158.331 Y120.377 E0.01666
G1 X158.495 Y120.882 E0.01666
G1 X158.551 Y121.411 E0.01666
G1 X158.495 Y121.939 E0.01666
G1 X158.331 Y122.444 E0.01666
G1 X158.065 Y122.904 E0.01666
G1 X157.710 Y123.299 E0.01666
G1 X157.280 Y123.612 E0.01666
G1 X156.795 Y123.828 E0.01666
G1 X156.275 Y123.938 E0.01666
G1 X155.744 Y123.938 E0.01666
G1 X155.224 Y123.828 E0.01666
G1 X154.739 Y123.612 E0.01666
G1 X154.309 Y123.299 E0.01666
G1 X153.953 Y122.904 E0.01666
G1 X153.688 Y122.444 E0.01666
G1 X153.523 Y121.939 E0.01666
G1 X153.468 Y121.411 E0.01666
G1 X153.523 Y120.882 E0.01666
G1 X153.688 Y120.377 E0.01666
G1 X153.953 Y119.917 E0.01666
G1 X154.309 Y119.522 E0.01666
G1 X154.739 Y119.210 E0.01666
G1 X155.224 Y118.994 E0.01666
G1 X155.685 Y118.896 E0.01478
M204 S1250
G1 X155.763 Y119.264 F9000.000
M204 S800
;TYPE:External perimeter
G1 F1200.000
G1 X156.235 Y119.260 E0.01480
G1 X156.678 Y119.354 E0.01418
G1 X157.090 Y119.538 E0.01417
G1 X157.456 Y119.804 E0.01417
G1 X157.759 Y120.140 E0.01417
G1 X157.985 Y120.531 E0.01417
G1 X158.124 Y120.961 E0.01418
G1 X158.172 Y121.411 E0.01417
G1 X158.124 Y121.860 E0.01417
G1 X157.985 Y122.290 E0.01418
G1 X157.759 Y122.682 E0.01417
G1 X157.456 Y123.018 E0.01417
G1 X157.090 Y123.283 E0.01417
G1 X156.678 Y123.467 E0.01417
G1 X156.235 Y123.561 E0.01418
G1 X155.783 Y123.561 E0.01417
G1 X155.341 Y123.467 E0.01417
G1 X154.928 Y123.283 E0.01417
G1 X154.562 Y123.018 E0.01417
G1 X154.260 Y122.682 E0.01417
G1 X154.034 Y122.290 E0.01417
G1 X153.894 Y121.860 E0.01418
G1 X153.847 Y121.411 E0.01417
G1 X153.894 Y120.961 E0.01417
G1 X154.034 Y120.531 E0.01418
G1 X154.260 Y120.140 E0.01417
G1 X154.562 Y119.804 E0.01417
G1 X154.928 Y119.538 E0.01417
G1 X155.341 Y119.354 E0.01417
G1 X155.705 Y119.277 E0.01166
M204 S1250
G1 X155.924 Y118.898 F9000.000
G1 E-2.24000 F4200.000
;WIPE_START
G1 F7200.000
G1 X156.235 Y119.260 E-0.29419
G1 X156.678 Y119.354 E-0.25053
G1 X157.090 Y119.538 E-0.25047
G1 X157.261 Y119.662 E-0.11681
;WIPE_END
G1 E-0.04800 F4200.000
G1 Z0.400 F9000.000
G1 X148.335 Y120.882
G1 Z0.200
G1 E3.20000 F2400.000
M204 S800
;TYPE:Perimeter
G1 F1200.000
G1 X148.391 Y121.411 E0.01666
G1 X148.335 Y121.939 E0.01666
G1 X148.171 Y122.444 E0.01666
G1 X147.905 Y122.904 E0.01666
G1 X147.550 Y123.299 E0.01666
G1 X147.120 Y123.612 E0.01666
G1 X146.635 Y123.828 E0.01666
G1 X146.115 Y123.938 E0.01666
G1 X145.584 Y123.938 E0.01666
G1 X145.064 Y123.828 E0.01666
G1 X144.579 Y123.612 E0.01666
G1 X144.144 Y123.296 E0.01685
G1 X143.767 Y122.860 E0.01806
G1 X143.528 Y122.444 E0.01504
G1 X143.363 Y121.939 E0.01666
G1 X143.308 Y121.411 E0.01666
G1 X143.363 Y120.882 E0.01666
G1 X143.528 Y120.377 E0.01666
G1 X143.793 Y119.917 E0.01666
G1 X144.149 Y119.522 E0.01666
G1 X144.579 Y119.210 E0.01666
G1 X145.064 Y118.994 E0.01666
G1 X145.584 Y118.883 E0.01666
G1 X146.115 Y118.883 E0.01666
G1 X146.635 Y118.994 E0.01666
G1 X147.120 Y119.210 E0.01666
G1 X147.550 Y119.522 E0.01666
G1 X147.905 Y119.917 E0.01666
G1 X148.171 Y120.377 E0.01666
G1 X148.317 Y120.825 E0.01478
M204 S1250
G1 X147.958 Y120.942 F9000.000
M204 S800
;TYPE:External perimeter
G1 F1200.000
G1 X148.012 Y121.411 E0.01480
G1 X147.964 Y121.860 E0.01417
G1 X147.825 Y122.290 E0.01418
G1 X147.599 Y122.682 E0.01417
G1 X147.296 Y123.018 E0.01417
G1 X146.930 Y123.283 E0.01417
G1 X146.518 Y123.467 E0.01417
G1 X146.075 Y123.561 E0.01418
G1 X145.623 Y123.561 E0.01417
G1 X145.181 Y123.467 E0.01417
G1 X144.768 Y123.283 E0.01417
G1 X144.401 Y123.016 E0.01424
G1 X144.076 Y122.640 E0.01557
G1 X143.874 Y122.290 E0.01268
G1 X143.734 Y121.860 E0.01418
G1 X143.687 Y121.411 E0.01417
G1 X143.734 Y120.961 E0.01417
G1 X143.874 Y120.531 E0.01418
G1 X144.100 Y120.140 E0.01417
G1 X144.402 Y119.804 E0.01417
G1 X144.768 Y119.538 E0.01417
G1 X145.181 Y119.354 E0.01417
G1 X145.623 Y119.260 E0.01417
G1 X146.075 Y119.260 E0.01417
G1 X146.518 Y119.354 E0.01418
G1 X146.930 Y119.538 E0.01417
G1 X147.296 Y119.804 E0.01417
G1 X147.599 Y120.140 E0.01417
G1 X147.825 Y120.531 E0.01417
G1 X147.940 Y120.885 E0.01166
M204 S1250
G1 X148.339 Y121.063 F9000.000
G1 E-2.24000 F4200.000
;WIPE_START
G1 F7200.000
G1 X148.012 Y121.411 E-0.29416
G1 X147.964 Y121.860 E-0.25047
G1 X147.825 Y122.290 E-0.25055
G1 X147.719 Y122.473 E-0.11681
;WIPE_END
G1 E-0.04800 F4200.000
G1 Z0.400 F9000.000
G1 X138.231 Y121.411
G1 Z0.200
G1 E3.20000 F2400.000
M204 S800
;TYPE:Perimeter
G1 F1200.000
G1 X138.175 Y121.939 E0.01666
G1 X138.011 Y122.444 E0.01666
G1 X137.745 Y122.904 E0.01666
G1 X137.390 Y123.299 E0.01666
G1 X136.960 Y123.612 E0.01666
G1 X136.475 Y123.828 E0.01666
G1 X135.955 Y123.938 E0.01666
G1 X135.424 Y123.938 E0.01666
G1 X134.904 Y123.828 E0.01666
G1 X134.419 Y123.612 E0.01666
G1 X133.984 Y123.296 E0.01685
G1 X133.607 Y122.860 E0.01806
G1 X133.368 Y122.444 E0.01504
G1 X133.203 Y121.939 E0.01666
G1 X133.148 Y121.411 E0.01666
G1 X133.203 Y120.882 E0.01666
G1 X133.368 Y120.377 E0.01666
G1 X133.633 Y119.917 E0.01666
G1 X133.989 Y119.522 E0.01666
G1 X134.419 Y119.210 E0.01666
G1 X134.904 Y118.994 E0.01666
G1 X135.424 Y118.883 E0.01666
G1 X135.955 Y118.883 E0.01666
G1 X136.475 Y118.994 E0.01666
G1 X136.960 Y119.210 E0.01666
G1 X137.390 Y119.522 E0.01666
G1 X137.745 Y119.917 E0.01666
G1 X138.011 Y120.377 E0.01666
G1 X138.175 Y120.882 E0.01666
G1 X138.224 Y121.351 E0.01478
M204 S1250
G1 X137.849 Y121.390 F9000.000
M204 S800
;TYPE:External perimeter
G1 F1200.000
G1 X137.804 Y121.860 E0.01480
G1 X137.665 Y122.290 E0.01418
G1 X137.439 Y122.682 E0.01417
G1 X137.136 Y123.018 E0.01417
G1 X136.770 Y123.283 E0.01417
G1 X136.358 Y123.467 E0.01417
G1 X135.915 Y123.561 E0.01417
G1 X135.463 Y123.561 E0.01417
G1 X135.021 Y123.467 E0.01417
G1 X134.608 Y123.283 E0.01417
G1 X134.241 Y123.016 E0.01424
G1 X133.916 Y122.640 E0.01557
G1 X133.714 Y122.290 E0.01268
G1 X133.574 Y121.860 E0.01418
G1 X133.527 Y121.411 E0.01417
G1 X133.574 Y120.961 E0.01417
G1 X133.714 Y120.531 E0.01418
G1 X133.940 Y120.140 E0.01417
G1 X134.242 Y119.804 E0.01417
G1 X134.608 Y119.538 E0.01417
G1 X135.021 Y119.354 E0.01417
G1 X135.463 Y119.260 E0.01417
G1 X135.915 Y119.260 E0.01417
G1 X136.358 Y119.354 E0.01417
G1 X136.770 Y119.538 E0.01417
G1 X137.136 Y119.804 E0.01417
G1 X137.439 Y120.140 E0.01417
G1 X137.665 Y120.531 E0.01417
G1 X137.804 Y120.961 E0.01418
G1 X137.843 Y121.331 E0.01165
M204 S1250
G1 X138.197 Y121.588 F9000.000
G1 E-2.24000 F4200.000
;WIPE_START
G1 F7200.000
G1 X137.804 Y121.860 E-0.29420
G1 X137.665 Y122.290 E-0.25055
G1 X137.439 Y122.682 E-0.25047
