; generated by PrusaSlicer 2.3.3+linux-x64 on 2021-09-26 at 13:25:26 UTC


;
;

;
;
; 

; external perimeters extrusion width = 0.45mm
; perimeters extrusion width = 0.45mm
; infill extrusion width = 0.45mm
; solid infill extrusion width = 0.45mm
; top infill extrusion width = 0.40mm
; first layer extrusion width = 0.42mm

M73 P0 R122
M201 X1250 Y1250 Z400 E5000 ; sets maximum accelerations, mm/sec^2
M203 X180 Y180 Z12 E80 ; sets maximum feedrates, mm/sec
M204 P1250 R1250 T1250 ; sets acceleration (P, T) and retract acceleration (R), mm/sec^2
M205 X8.00 Y8.00 Z2.00 E10.00 ; sets the jerk limits, mm/sec
M205 S0 T0 ; sets the minimum extruding and travel feed rate, mm/sec
M107
;TYPE:Custom
G90 ; use absolute coordinates
M83 ; extruder relative mode
M104 S170 ; set extruder temp for bed leveling
M140 S60 ; set bed temp
M109 R170 ; wait for bed leveling temp
M190 S60 ; wait for bed temp
G28 ; home all without mesh bed level
G29 ; mesh bed leveling 
M104 S215 ; set extruder temp
G92 E0.0
G1 Y-2.0 X179 F2400
M73 P0 R121
G1 Z3 F720
M109 S215 ; wait for extruder temp

; intro line
G1 X170 F1000
G1 Z0.2 F720
G1 X110.0 E8.0 F900
G1 X40.0 E10.0 F700
G92 E0.0

M221 S95 ; set flow
G21 ; set units to millimeters
G90 ; use absolute coordinates
M83 ; use relative distances for extrusion
M900 K0.2 ; Filament gcode LA 1.5
; ; Filament gcode LA 1.0
;LAYER_CHANGE
;Z:0.2
;HEIGHT:0.2
;BEFORE_LAYER_CHANGE
G92 E0.0
;0.2


G1 E-3.20000 F4200.000
G1 Z0.200 F9000.000
;AFTER_LAYER_CHANGE
;0.2
G1 Z0.400
G1 X155.925 Y130.572
G1 Z0.200
G1 E3.20000 F2400.000
M204 S800
;TYPE:Skirt
;WIDTH:0.42
G1 F1200.000
G1 X155.000 Y130.760 E0.02960
G1 X24.989 Y130.760 E4.07642
G1 X24.098 Y130.582 E0.02849
G1 X23.341 Y130.085 E0.02837
G1 X22.900 Y129.496 E0.02308
G1 X22.659 Y128.797 E0.02319
G1 X15.651 Y86.622 E1.34051
G1 X15.630 Y86.075 E0.01716
G1 X15.735 Y85.538 E0.01716
G1 X15.960 Y85.039 E0.01716
G1 X16.295 Y84.602 E0.01728
G1 X16.811 Y84.200 E0.02051
G1 X77.095 Y49.419 E2.18217
G1 X77.982 Y49.240 E0.02837
G1 X102.004 Y49.240 E0.75319
G1 X102.614 Y49.321 E0.01929
G1 X103.186 Y49.557 E0.01941
G1 X163.195 Y84.204 E2.17262
G1 X163.622 Y84.521 E0.01668
G1 X163.968 Y84.925 E0.01668
G1 X164.321 Y85.746 E0.02802
G1 X164.347 Y86.636 E0.02790
G1 X157.341 Y128.795 E1.34000
G1 X157.117 Y129.464 E0.02213
G1 X156.703 Y130.041 E0.02225
G1 X155.975 Y130.538 E0.02766
M204 S1250
; printing object SolarHolder_big.amf id:0 copy 0
G1 E-2.24000 F4200.000
;WIPE_START
G1 F7200.000
G1 X155.000 Y130.760 E-0.55397
G1 X154.354 Y130.760 E-0.35803
;WIPE_END
G1 E-0.04800 F4200.000
G1 Z0.400 F9000.000
G1 X67.370 Y113.682
G1 Z0.200
G1 E3.20000 F2400.000
M204 S800
;TYPE:Perimeter
G1 F1200.000
G1 X67.314 Y113.977 E0.00941
G1 X67.221 Y114.262 E0.00940
G1 X67.093 Y114.533 E0.00940
G1 X66.932 Y114.787 E0.00941
G1 X66.741 Y115.018 E0.00940
G1 X66.523 Y115.223 E0.00940
G1 X66.280 Y115.400 E0.00941
G1 X66.017 Y115.544 E0.00940
G1 X65.738 Y115.654 E0.00940
G1 X65.447 Y115.729 E0.00941
G1 X65.150 Y115.767 E0.00941
G1 X64.850 Y115.767 E0.00940
G1 X64.553 Y115.729 E0.00941
G1 X64.262 Y115.654 E0.00941
G1 X63.983 Y115.544 E0.00940
G1 X63.720 Y115.400 E0.00940
G1 X63.477 Y115.223 E0.00941
G1 X63.259 Y115.018 E0.00940
G1 X63.068 Y114.787 E0.00940
G1 X62.907 Y114.533 E0.00941
G1 X62.779 Y114.262 E0.00940
G1 X62.686 Y113.977 E0.00940
G1 X62.630 Y113.682 E0.00941
G1 X62.611 Y113.383 E0.00941
G1 X62.630 Y113.083 E0.00941
G1 X62.686 Y112.789 E0.00941
G1 X62.779 Y112.503 E0.00940
G1 X62.907 Y112.232 E0.00940
G1 X63.068 Y111.979 E0.00941
G1 X63.259 Y111.748 E0.00940
G1 X63.477 Y111.542 E0.00940
G1 X63.720 Y111.366 E0.00941
G1 X63.983 Y111.221 E0.00940
G1 X64.262 Y111.111 E0.00940
G1 X64.553 Y111.036 E0.00941
G1 X64.850 Y110.999 E0.00941
G1 X65.150 Y110.999 E0.00940
G1 X65.447 Y111.036 E0.00941
G1 X65.738 Y111.111 E0.00941
G1 X66.017 Y111.221 E0.00940
G1 X66.280 Y111.366 E0.00940
G1 X66.523 Y111.542 E0.00941
G1 X66.741 Y111.748 E0.00940
G1 X66.932 Y111.979 E0.00940
G1 X67.093 Y112.232 E0.00941
G1 X67.221 Y112.503 E0.00940
G1 X67.307 Y112.769 E0.00877
G1 X67.370 Y113.081 E0.00996
G1 X67.389 Y113.383 E0.00949
G1 X67.374 Y113.622 E0.00752
M204 S1250
G1 X66.997 Y113.599 F9000.000
M204 S800
;TYPE:External perimeter
G1 F1200.000
G1 X66.948 Y113.883 E0.00905
G1 X66.870 Y114.123 E0.00792
G1 X66.762 Y114.351 E0.00792
G1 X66.627 Y114.565 E0.00792
G1 X66.466 Y114.759 E0.00792
G1 X66.282 Y114.932 E0.00791
G1 X66.077 Y115.080 E0.00792
G1 X65.856 Y115.202 E0.00792
G1 X65.621 Y115.295 E0.00792
G1 X65.377 Y115.358 E0.00792
G1 X65.126 Y115.390 E0.00792
G1 X64.874 Y115.390 E0.00791
G1 X64.623 Y115.358 E0.00792
G1 X64.379 Y115.295 E0.00792
G1 X64.144 Y115.202 E0.00792
G1 X63.923 Y115.080 E0.00792
G1 X63.718 Y114.932 E0.00792
G1 X63.534 Y114.759 E0.00791
G1 X63.373 Y114.565 E0.00792
G1 X63.238 Y114.351 E0.00792
G1 X63.130 Y114.123 E0.00792
G1 X63.052 Y113.883 E0.00792
G1 X63.005 Y113.635 E0.00792
G1 X62.989 Y113.383 E0.00792
G1 X63.005 Y113.131 E0.00792
G1 X63.052 Y112.883 E0.00792
G1 X63.130 Y112.643 E0.00792
G1 X63.238 Y112.414 E0.00792
G1 X63.373 Y112.201 E0.00792
G1 X63.534 Y112.006 E0.00792
G1 X63.718 Y111.833 E0.00791
G1 X63.923 Y111.685 E0.00792
G1 X64.144 Y111.563 E0.00792
G1 X64.379 Y111.470 E0.00792
G1 X64.623 Y111.407 E0.00792
G1 X64.874 Y111.376 E0.00792
G1 X65.126 Y111.376 E0.00791
G1 X65.377 Y111.407 E0.00792
G1 X65.621 Y111.470 E0.00792
G1 X65.856 Y111.563 E0.00792
G1 X66.077 Y111.685 E0.00792
G1 X66.282 Y111.833 E0.00792
G1 X66.466 Y112.006 E0.00791
G1 X66.627 Y112.201 E0.00792
G1 X66.762 Y112.414 E0.00792
G1 X66.870 Y112.643 E0.00792
G1 X66.942 Y112.865 E0.00733
G1 X66.995 Y113.130 E0.00847
G1 X67.001 Y113.539 E0.01282
M204 S1250
G1 X67.233 Y113.765 F9000.000
G1 E-2.24000 F4200.000
;WIPE_START
G1 F7200.000
G1 X66.948 Y113.883 E-0.19299
G1 X66.870 Y114.123 E-0.13989
G1 X66.762 Y114.351 E-0.13992
G1 X66.627 Y114.565 E-0.14001
G1 X66.466 Y114.759 E-0.13992
G1 X66.282 Y114.932 E-0.13989
G1 X66.253 Y114.953 E-0.01937
;WIPE_END
G1 E-0.04800 F4200.000
G1 Z0.400 F9000.000
G1 X47.389 Y113.383
G1 Z0.200
G1 E3.20000 F2400.000
M204 S800
;TYPE:Perimeter
G1 F1200.000
G1 X47.370 Y113.682 E0.00941
G1 X47.314 Y113.977 E0.00941
G1 X47.221 Y114.262 E0.00940
G1 X47.093 Y114.533 E0.00940
G1 X46.932 Y114.787 E0.00941
G1 X46.741 Y115.018 E0.00940
G1 X46.523 Y115.223 E0.00940
G1 X46.280 Y115.400 E0.00941
G1 X46.017 Y115.544 E0.00940
G1 X45.738 Y115.654 E0.00940
G1 X45.447 Y115.729 E0.00941
G1 X45.150 Y115.767 E0.00941
G1 X44.850 Y115.767 E0.00940
G1 X44.553 Y115.729 E0.00941
G1 X44.262 Y115.654 E0.00941
G1 X43.983 Y115.544 E0.00940
G1 X43.720 Y115.400 E0.00940
G1 X43.477 Y115.223 E0.00941
G1 X43.259 Y115.018 E0.00940
G1 X43.068 Y114.787 E0.00940
G1 X42.907 Y114.533 E0.00941
G1 X42.779 Y114.262 E0.00940
G1 X42.686 Y113.977 E0.00940
G1 X42.630 Y113.682 E0.00941
G1 X42.611 Y113.383 E0.00941
G1 X42.630 Y113.083 E0.00941
G1 X42.686 Y112.789 E0.00941
G1 X42.779 Y112.503 E0.00940
G1 X42.907 Y112.232 E0.00940
G1 X43.068 Y111.979 E0.00941
G1 X43.259 Y111.748 E0.00940
G1 X43.477 Y111.542 E0.00940
G1 X43.720 Y111.366 E0.00941
G1 X43.983 Y111.221 E0.00940
G1 X44.262 Y111.111 E0.00940
G1 X44.553 Y111.036 E0.00941
G1 X44.850 Y110.999 E0.00941
G1 X45.150 Y110.999 E0.00940
G1 X45.447 Y111.036 E0.00941
G1 X45.738 Y111.111 E0.00941
G1 X46.017 Y111.221 E0.00940
G1 X46.280 Y111.366 E0.00940
G1 X46.523 Y111.542 E0.00941
G1 X46.741 Y111.748 E0.00940
G1 X46.932 Y111.979 E0.00940
G1 X47.093 Y112.232 E0.00941
G1 X47.221 Y112.503 E0.00940
G1 X47.307 Y112.769 E0.00877
G1 X47.370 Y113.081 E0.00996
G1 X47.385 Y113.323 E0.00761
M204 S1250
G1 X47.009 Y113.346 F9000.000
M204 S800
;TYPE:External perimeter
G1 F1200.000
G1 X46.995 Y113.635 E0.00905
G1 X46.948 Y113.883 E0.00792
G1 X46.870 Y114.123 E0.00792
G1 X46.762 Y114.351 E0.00792
G1 X46.627 Y114.565 E0.00792
G1 X46.466 Y114.759 E0.00792
G1 X46.282 Y114.932 E0.00791
G1 X46.077 Y115.080 E0.00792
G1 X45.856 Y115.202 E0.00792
G1 X45.621 Y115.295 E0.00792
G1 X45.377 Y115.358 E0.00792
G1 X45.126 Y115.390 E0.00792
G1 X44.874 Y115.390 E0.00791
G1 X44.623 Y115.358 E0.00792
G1 X44.379 Y115.295 E0.00792
G1 X44.144 Y115.202 E0.00792
G1 X43.923 Y115.080 E0.00792
G1 X43.718 Y114.932 E0.00792
G1 X43.534 Y114.759 E0.00791
G1 X43.373 Y114.565 E0.00792
G1 X43.238 Y114.351 E0.00792
G1 X43.130 Y114.123 E0.00792
G1 X43.052 Y113.883 E0.00792
G1 X43.005 Y113.635 E0.00792
G1 X42.989 Y113.383 E0.00792
G1 X43.005 Y113.131 E0.00792
G1 X43.052 Y112.883 E0.00792
G1 X43.130 Y112.643 E0.00792
G1 X43.238 Y112.414 E0.00792
G1 X43.373 Y112.201 E0.00792
G1 X43.534 Y112.006 E0.00792
G1 X43.718 Y111.833 E0.00791
G1 X43.923 Y111.685 E0.00792
G1 X44.144 Y111.563 E0.00792
G1 X44.379 Y111.470 E0.00792
G1 X44.623 Y111.407 E0.00792
G1 X44.874 Y111.376 E0.00792
G1 X45.126 Y111.376 E0.00791
G1 X45.377 Y111.407 E0.00792
G1 X45.621 Y111.470 E0.00792
G1 X45.856 Y111.563 E0.00792
G1 X46.077 Y111.685 E0.00792
G1 X46.282 Y111.833 E0.00792
G1 X46.466 Y112.006 E0.00791
G1 X46.627 Y112.201 E0.00792
G1 X46.762 Y112.414 E0.00792
G1 X46.870 Y112.643 E0.00792
G1 X46.942 Y112.865 E0.00733
G1 X46.995 Y113.130 E0.00847
G1 X47.005 Y113.287 E0.00493
M204 S1250
G1 X47.261 Y113.487 F9000.000
G1 E-2.24000 F4200.000
;WIPE_START
G1 F7200.000
G1 X46.995 Y113.635 E-0.19300
G1 X46.948 Y113.883 E-0.13997
G1 X46.870 Y114.123 E-0.13989
G1 X46.762 Y114.351 E-0.13992
G1 X46.627 Y114.565 E-0.14001
G1 X46.466 Y114.759 E-0.13992
G1 X46.440 Y114.783 E-0.01928
;WIPE_END
G1 E-0.04800 F4200.000
G1 Z0.400 F9000.000
G1 X66.755 Y70.566
G1 Z0.200
G1 E3.20000 F2400.000
M204 S800
;TYPE:Perimeter
G1 F1200.000
G1 X62.968 Y64.006 E0.23748
G1 X20.288 Y88.647 E1.54520
G1 X19.075 Y86.546 E0.07606
G1 X77.712 Y52.692 E2.12293
G1 X84.213 Y63.953 E0.40767
G1 X84.213 Y127.596 E1.99548
G1 X25.787 Y127.596 E1.83190
G1 X25.787 Y98.172 E0.92256
G1 X24.075 Y95.207 E0.10735
G1 X66.703 Y70.596 E1.54332
M204 S1250
G1 X66.240 Y70.428 F9000.000
M204 S800
;TYPE:External perimeter
G1 F1200.000
G1 X62.830 Y64.521 E0.21384
G1 X20.150 Y89.162 E1.54520
G1 X18.560 Y86.408 E0.09971
G1 X77.850 Y52.177 E2.14658
M73 P0 R120
G1 X84.590 Y63.852 E0.42266
G1 X84.590 Y127.973 E2.01047
G1 X25.410 Y127.973 E1.85555
G1 X25.410 Y98.273 E0.93122
M73 P1 R120
G1 X23.560 Y95.069 E0.11601
G1 X66.188 Y70.458 E1.54332
M204 S1250
G1 X66.581 Y70.219 F9000.000
G1 E-2.24000 F4200.000
;WIPE_START
G1 F7200.000
G1 X65.377 Y69.025 E-0.91200
;WIPE_END
G1 E-0.04800 F4200.000
G1 Z0.400 F9000.000
G1 X77.184 Y53.128
G1 Z0.200
G1 E3.20000 F2400.000
M204 S800
;TYPE:Solid infill
;WIDTH:0.420271
G1 F1200.000
G1 X78.256 Y54.200 E0.04758
G1 X78.985 Y55.463 E0.04575
G1 X76.970 Y53.448 E0.08943
G1 X76.631 Y53.643 E0.01226
G1 X79.714 Y56.726 E0.13679
G1 X80.443 Y57.988 E0.04575
G1 X76.293 Y53.838 E0.18415
G1 X75.955 Y54.034 E0.01226
G1 X81.172 Y59.251 E0.23151
G1 X81.901 Y60.513 E0.04575
G1 X75.616 Y54.229 E0.27887
G1 X75.278 Y54.424 E0.01226
G1 X82.630 Y61.776 E0.32623
G1 X83.359 Y63.039 E0.04575
G1 X74.940 Y54.620 E0.37359
G1 X74.601 Y54.815 E0.01226
G1 X83.930 Y64.144 E0.41395
G1 X83.930 Y64.677 E0.01674
G1 X74.263 Y55.010 E0.42897
G1 X73.925 Y55.206 E0.01226
G1 X83.930 Y65.211 E0.44398
G1 X83.930 Y65.745 E0.01674
G1 X73.586 Y55.401 E0.45899
G1 X73.248 Y55.596 E0.01226
G1 X83.930 Y66.278 E0.47400
G1 X83.930 Y66.812 E0.01674
G1 X72.910 Y55.792 E0.48902
G1 X72.571 Y55.987 E0.01226
G1 X83.930 Y67.346 E0.50403
G1 X83.930 Y67.879 E0.01674
G1 X72.233 Y56.182 E0.51904
G1 X71.895 Y56.378 E0.01226
G1 X83.930 Y68.413 E0.53405
G1 X83.930 Y68.947 E0.01674
G1 X71.556 Y56.573 E0.54907
G1 X71.218 Y56.768 E0.01226
G1 X83.930 Y69.480 E0.56408
G1 X83.930 Y70.014 E0.01674
G1 X70.880 Y56.964 E0.57909
G1 X70.541 Y57.159 E0.01226
G1 X83.930 Y70.548 E0.59410
G1 X83.930 Y71.081 E0.01674
G1 X70.203 Y57.354 E0.60912
G1 X69.865 Y57.550 E0.01226
G1 X83.930 Y71.615 E0.62413
G1 X83.930 Y72.149 E0.01674
G1 X69.526 Y57.745 E0.63914
G1 X69.188 Y57.940 E0.01226
G1 X83.930 Y72.682 E0.65416
G1 X83.930 Y73.216 E0.01674
G1 X68.850 Y58.136 E0.66917
G1 X68.511 Y58.331 E0.01226
G1 X83.930 Y73.750 E0.68418
G1 X83.930 Y74.283 E0.01674
G1 X68.173 Y58.526 E0.69919
G1 X67.835 Y58.722 E0.01226
G1 X83.930 Y74.817 E0.71421
G1 X83.930 Y75.350 E0.01674
G1 X67.497 Y58.917 E0.72922
G1 X67.158 Y59.112 E0.01226
G1 X83.930 Y75.884 E0.74423
G1 X83.930 Y76.418 E0.01674
G1 X66.820 Y59.308 E0.75924
G1 X66.482 Y59.503 E0.01226
G1 X83.930 Y76.951 E0.77426
G1 X83.930 Y77.485 E0.01674
G1 X66.143 Y59.698 E0.78927
G1 X65.805 Y59.894 E0.01226
G1 X83.930 Y78.019 E0.80428
G1 X83.930 Y78.552 E0.01674
G1 X65.467 Y60.089 E0.81929
G1 X65.128 Y60.284 E0.01226
G1 X83.930 Y79.086 E0.83431
G1 X83.930 Y79.620 E0.01674
G1 X64.790 Y60.480 E0.84932
G1 X64.452 Y60.675 E0.01226
G1 X83.930 Y80.153 E0.86433
G1 X83.930 Y80.687 E0.01674
G1 X64.113 Y60.870 E0.87934
G1 X63.775 Y61.066 E0.01226
G1 X83.930 Y81.221 E0.89436
G1 X83.930 Y81.754 E0.01674
G1 X63.437 Y61.261 E0.90937
G1 X63.098 Y61.456 E0.01226
G1 X83.930 Y82.288 E0.92438
G1 X83.930 Y82.822 E0.01674
G1 X62.760 Y61.652 E0.93940
G1 X62.422 Y61.847 E0.01226
G1 X83.930 Y83.355 E0.95441
G1 X83.930 Y83.889 E0.01674
G1 X62.083 Y62.042 E0.96942
M73 P1 R119
G1 X61.745 Y62.237 E0.01226
G1 X83.930 Y84.423 E0.98443
G1 X83.930 Y84.956 E0.01674
G1 X63.723 Y64.749 E0.89666
G1 X63.071 Y63.620 E0.04092
G1 X62.769 Y63.795 E0.01096
G1 X61.407 Y62.433 E0.06043
G1 X61.068 Y62.628 E0.01226
G1 X62.430 Y63.990 E0.06043
G1 X62.092 Y64.185 E0.01226
G1 X60.730 Y62.823 E0.06043
G1 X60.392 Y63.019 E0.01226
G1 X61.754 Y64.381 E0.06043
G1 X61.415 Y64.576 E0.01226
G1 X60.053 Y63.214 E0.06043
G1 X59.715 Y63.409 E0.01226
G1 X61.077 Y64.771 E0.06043
G1 X60.739 Y64.967 E0.01226
G1 X59.377 Y63.605 E0.06043
G1 X59.038 Y63.800 E0.01226
G1 X60.400 Y65.162 E0.06043
G1 X60.062 Y65.357 E0.01226
G1 X58.700 Y63.995 E0.06043
G1 X58.362 Y64.191 E0.01226
G1 X59.724 Y65.553 E0.06043
G1 X59.385 Y65.748 E0.01226
G1 X58.023 Y64.386 E0.06043
G1 X57.685 Y64.581 E0.01226
G1 X59.047 Y65.943 E0.06043
G1 X58.709 Y66.139 E0.01226
G1 X57.347 Y64.777 E0.06043
G1 X57.008 Y64.972 E0.01226
G1 X58.370 Y66.334 E0.06043
G1 X58.032 Y66.529 E0.01226
G1 X56.670 Y65.167 E0.06043
G1 X56.332 Y65.363 E0.01226
G1 X57.694 Y66.725 E0.06043
G1 X57.355 Y66.920 E0.01226
G1 X55.994 Y65.558 E0.06043
G1 X55.655 Y65.753 E0.01226
G1 X57.017 Y67.115 E0.06043
G1 X56.679 Y67.311 E0.01226
G1 X55.317 Y65.949 E0.06043
G1 X54.979 Y66.144 E0.01226
G1 X56.340 Y67.506 E0.06043
G1 X56.002 Y67.701 E0.01226
G1 X54.640 Y66.339 E0.06043
G1 X54.302 Y66.535 E0.01226
G1 X55.664 Y67.897 E0.06043
G1 X55.325 Y68.092 E0.01226
G1 X53.964 Y66.730 E0.06043
G1 X53.625 Y66.925 E0.01226
G1 X54.987 Y68.287 E0.06043
G1 X54.649 Y68.483 E0.01226
G1 X53.287 Y67.121 E0.06043
G1 X52.949 Y67.316 E0.01226
G1 X54.310 Y68.678 E0.06043
G1 X53.972 Y68.873 E0.01226
G1 X52.610 Y67.511 E0.06043
G1 X52.272 Y67.707 E0.01226
G1 X53.634 Y69.069 E0.06043
G1 X53.295 Y69.264 E0.01226
G1 X51.934 Y67.902 E0.06043
G1 X51.595 Y68.097 E0.01226
G1 X52.957 Y69.459 E0.06043
G1 X52.619 Y69.655 E0.01226
G1 X51.257 Y68.293 E0.06043
G1 X50.919 Y68.488 E0.01226
G1 X52.280 Y69.850 E0.06043
G1 X51.942 Y70.045 E0.01226
G1 X50.580 Y68.683 E0.06043
G1 X50.242 Y68.879 E0.01226
G1 X51.604 Y70.241 E0.06043
G1 X51.265 Y70.436 E0.01226
G1 X49.904 Y69.074 E0.06043
G1 X49.565 Y69.269 E0.01226
G1 X50.927 Y70.631 E0.06043
G1 X50.589 Y70.827 E0.01226
G1 X49.227 Y69.465 E0.06043
G1 X48.889 Y69.660 E0.01226
G1 X50.251 Y71.022 E0.06043
G1 X49.912 Y71.217 E0.01226
G1 X48.550 Y69.855 E0.06043
G1 X48.212 Y70.051 E0.01226
G1 X49.574 Y71.413 E0.06043
G1 X49.236 Y71.608 E0.01226
G1 X47.874 Y70.246 E0.06043
G1 X47.535 Y70.441 E0.01226
G1 X48.897 Y71.803 E0.06043
G1 X48.559 Y71.999 E0.01226
G1 X47.197 Y70.637 E0.06043
G1 X46.859 Y70.832 E0.01226
G1 X48.221 Y72.194 E0.06043
G1 X47.882 Y72.389 E0.01226
G1 X46.520 Y71.027 E0.06043
G1 X46.182 Y71.223 E0.01226
G1 X47.544 Y72.585 E0.06043
G1 X47.206 Y72.780 E0.01226
G1 X45.844 Y71.418 E0.06043
G1 X45.505 Y71.613 E0.01226
G1 X46.867 Y72.975 E0.06043
G1 X46.529 Y73.171 E0.01226
G1 X45.167 Y71.809 E0.06043
G1 X44.829 Y72.004 E0.01226
G1 X46.191 Y73.366 E0.06043
G1 X45.852 Y73.561 E0.01226
