; generated by PrusaSlicer 2.3.1+linux-x64 on 2021-06-03 at 19:18:19 UTC


;
;

;
;
; 

; external perimeters extrusion width = 0.45mm
; perimeters extrusion width = 0.45mm
; infill extrusion width = 0.45mm
; solid infill extrusion width = 0.45mm
; top infill extrusion width = 0.40mm
; first layer extrusion width = 0.42mm

M73 P0 R94
M201 X1250 Y1250 Z400 E5000 ; sets maximum accelerations, mm/sec^2
M203 X180 Y180 Z12 E80 ; sets maximum feedrates, mm/sec
M204 P1250 R1250 T1250 ; sets acceleration (P, T) and retract acceleration (R), mm/sec^2
M205 X8.00 Y8.00 Z2.00 E10.00 ; sets the jerk limits, mm/sec
M205 S0 T0 ; sets the minimum extruding and travel feed rate, mm/sec
M107
;TYPE:Custom
G90 ; use absolute coordinates
M83 ; extruder relative mode
M104 S170 ; set extruder temp for bed leveling
M140 S60 ; set bed temp
M109 R170 ; wait for bed leveling temp
M190 S60 ; wait for bed temp
G28 ; home all without mesh bed level
G29 ; mesh bed leveling 
M104 S215 ; set extruder temp
G92 E0.0
G1 Y-2.0 X179 F2400
G1 Z3 F720
M109 S215 ; wait for extruder temp

; intro line
G1 X170 F1000
G1 Z0.2 F720
G1 X110.0 E8.0 F900
G1 X40.0 E10.0 F700
G92 E0.0

M221 S95 ; set flow
G21 ; set units to millimeters
G90 ; use absolute coordinates
M83 ; use relative distances for extrusion
M900 K0.2 ; Filament gcode LA 1.5
; ; Filament gcode LA 1.0
;LAYER_CHANGE
;Z:0.2
;HEIGHT:0.2
;BEFORE_LAYER_CHANGE
G92 E0.0
;0.2


G1 E-3.20000 F4200.000
G1 Z0.200 F9000.000
;AFTER_LAYER_CHANGE
;0.2
G1 Z0.400
G1 X60.749 Y55.687
G1 Z0.200
G1 E3.20000 F2400.000
M204 S800
;TYPE:Skirt
;WIDTH:0.42
G1 F1200.000
G1 X61.104 Y55.016 E0.02378
G1 X61.476 Y54.626 E0.01692
G1 X61.924 Y54.331 E0.01680
G1 X62.426 Y54.143 E0.01680
G1 X62.961 Y54.073 E0.01692
G1 X117.004 Y54.073 E1.69448
G1 X117.899 Y54.249 E0.02860
G1 X118.662 Y54.750 E0.02860
G1 X119.178 Y55.498 E0.02849
G1 X119.376 Y56.388 E0.02860
G1 X119.377 Y125.624 E2.17085
G1 X119.251 Y126.372 E0.02378
G1 X118.896 Y127.042 E0.02378
G1 X118.521 Y127.436 E0.01704
G1 X118.066 Y127.733 E0.01704
G1 X117.556 Y127.920 E0.01704
G1 X117.020 Y127.986 E0.01692
G1 X62.981 Y127.986 E1.69436
G1 X62.237 Y127.860 E0.02367
G1 X61.566 Y127.505 E0.02378
G1 X61.173 Y127.130 E0.01704
G1 X60.875 Y126.675 E0.01704
G1 X60.689 Y126.165 E0.01704
G1 X60.623 Y125.625 E0.01704
G1 X60.623 Y56.435 E2.16942
G1 X60.739 Y55.746 E0.02190
M204 S1250
; printing object SolarHolder.stl id:0 copy 0
G1 E-2.24000 F4200.000
;WIPE_START
G1 F7200.000
G1 X61.104 Y55.016 E-0.45204
G1 X61.476 Y54.626 E-0.29909
G1 X61.718 Y54.466 E-0.16087
;WIPE_END
G1 E-0.04800 F4200.000
G1 Z0.400 F9000.000
G1 X88.049 Y95.079
G1 Z0.200
G1 E3.20000 F2400.000
M204 S800
;TYPE:Perimeter
G1 F1200.000
G1 X88.535 Y94.863 E0.01666
G1 X89.054 Y94.753 E0.01666
G1 X89.586 Y94.753 E0.01666
G1 X90.105 Y94.863 E0.01666
G1 X90.591 Y95.079 E0.01666
G1 X91.026 Y95.395 E0.01685
G1 X91.402 Y95.831 E0.01806
G1 X91.642 Y96.246 E0.01504
G1 X91.806 Y96.752 E0.01666
G1 X91.861 Y97.280 E0.01666
G1 X91.806 Y97.808 E0.01666
G1 X91.642 Y98.314 E0.01666
G1 X91.376 Y98.774 E0.01666
G1 X91.021 Y99.169 E0.01666
G1 X90.591 Y99.481 E0.01666
G1 X90.105 Y99.697 E0.01666
G1 X89.586 Y99.808 E0.01666
G1 X89.054 Y99.808 E0.01666
G1 X88.535 Y99.697 E0.01666
G1 X88.049 Y99.481 E0.01666
G1 X87.614 Y99.165 E0.01685
G1 X87.238 Y98.729 E0.01806
G1 X86.998 Y98.314 E0.01504
G1 X86.834 Y97.808 E0.01666
G1 X86.779 Y97.280 E0.01666
G1 X86.834 Y96.752 E0.01666
G1 X86.998 Y96.246 E0.01666
G1 X87.264 Y95.786 E0.01666
G1 X87.619 Y95.391 E0.01666
G1 X88.001 Y95.114 E0.01478
M204 S1250
G1 X88.222 Y95.420 F9000.000
M204 S800
;TYPE:External perimeter
G1 F1200.000
G1 X88.652 Y95.224 E0.01480
G1 X89.094 Y95.130 E0.01417
G1 X89.546 Y95.130 E0.01417
G1 X89.988 Y95.224 E0.01417
G1 X90.401 Y95.408 E0.01417
G1 X90.769 Y95.675 E0.01424
G1 X91.093 Y96.050 E0.01557
G1 X91.295 Y96.401 E0.01268
G1 X91.435 Y96.831 E0.01418
G1 X91.482 Y97.280 E0.01417
G1 X91.435 Y97.730 E0.01417
G1 X91.295 Y98.160 E0.01418
G1 X91.069 Y98.551 E0.01417
G1 X90.767 Y98.887 E0.01417
G1 X90.401 Y99.153 E0.01417
G1 X89.988 Y99.336 E0.01417
G1 X89.546 Y99.431 E0.01417
G1 X89.094 Y99.431 E0.01417
G1 X88.652 Y99.336 E0.01417
G1 X88.239 Y99.153 E0.01417
G1 X87.871 Y98.886 E0.01424
G1 X87.547 Y98.510 E0.01557
G1 X87.345 Y98.160 E0.01268
G1 X87.205 Y97.730 E0.01418
G1 X87.158 Y97.280 E0.01417
G1 X87.205 Y96.831 E0.01417
G1 X87.345 Y96.401 E0.01418
G1 X87.571 Y96.009 E0.01417
G1 X87.873 Y95.673 E0.01417
G1 X88.174 Y95.455 E0.01165
M204 S1250
G1 X88.220 Y95.020 F9000.000
G1 E-2.24000 F4200.000
;WIPE_START
G1 F7200.000
G1 X88.652 Y95.224 E-0.29419
G1 X89.094 Y95.130 E-0.25053
G1 X89.546 Y95.130 E-0.25049
G1 X89.752 Y95.174 E-0.11678
;WIPE_END
G1 E-0.04800 F4200.000
G1 Z0.400 F9000.000
G1 X81.646 Y96.752
G1 Z0.200
G1 E3.20000 F2400.000
M204 S800
;TYPE:Perimeter
G1 F1200.000
G1 X81.701 Y97.280 E0.01666
G1 X81.646 Y97.808 E0.01666
G1 X81.482 Y98.314 E0.01666
G1 X81.216 Y98.774 E0.01666
G1 X80.861 Y99.169 E0.01666
G1 X80.431 Y99.481 E0.01666
G1 X79.945 Y99.697 E0.01666
G1 X79.426 Y99.808 E0.01666
G1 X78.894 Y99.808 E0.01666
G1 X78.375 Y99.697 E0.01666
G1 X77.889 Y99.481 E0.01666
G1 X77.459 Y99.169 E0.01666
G1 X77.104 Y98.774 E0.01666
G1 X76.838 Y98.314 E0.01666
G1 X76.674 Y97.808 E0.01666
G1 X76.619 Y97.280 E0.01666
G1 X76.674 Y96.752 E0.01666
G1 X76.838 Y96.246 E0.01666
G1 X77.104 Y95.786 E0.01666
G1 X77.459 Y95.391 E0.01666
G1 X77.889 Y95.079 E0.01666
G1 X78.375 Y94.863 E0.01666
G1 X78.894 Y94.753 E0.01666
G1 X79.426 Y94.753 E0.01666
G1 X79.945 Y94.863 E0.01666
G1 X80.431 Y95.079 E0.01666
G1 X80.866 Y95.395 E0.01685
G1 X81.242 Y95.831 E0.01806
G1 X81.482 Y96.246 E0.01504
G1 X81.627 Y96.695 E0.01478
M204 S1250
G1 X81.269 Y96.811 F9000.000
M204 S800
;TYPE:External perimeter
G1 F1200.000
G1 X81.322 Y97.280 E0.01480
G1 X81.275 Y97.730 E0.01417
G1 X81.135 Y98.160 E0.01418
G1 X80.909 Y98.551 E0.01417
G1 X80.607 Y98.887 E0.01417
G1 X80.241 Y99.153 E0.01417
G1 X79.828 Y99.336 E0.01417
G1 X79.386 Y99.431 E0.01417
G1 X78.934 Y99.431 E0.01417
G1 X78.492 Y99.336 E0.01417
G1 X78.079 Y99.153 E0.01417
G1 X77.713 Y98.887 E0.01417
G1 X77.411 Y98.551 E0.01417
G1 X77.185 Y98.160 E0.01417
G1 X77.045 Y97.730 E0.01418
G1 X76.998 Y97.280 E0.01417
G1 X77.045 Y96.831 E0.01417
G1 X77.185 Y96.401 E0.01418
G1 X77.411 Y96.009 E0.01417
G1 X77.713 Y95.673 E0.01417
G1 X78.079 Y95.408 E0.01417
G1 X78.492 Y95.224 E0.01417
G1 X78.934 Y95.130 E0.01417
G1 X79.386 Y95.130 E0.01417
G1 X79.828 Y95.224 E0.01417
G1 X80.241 Y95.408 E0.01417
G1 X80.609 Y95.675 E0.01424
G1 X80.933 Y96.050 E0.01557
G1 X81.135 Y96.401 E0.01268
G1 X81.250 Y96.754 E0.01166
M204 S1250
G1 X81.650 Y96.933 F9000.000
G1 E-2.24000 F4200.000
;WIPE_START
G1 F7200.000
G1 X81.322 Y97.280 E-0.29416
G1 X81.275 Y97.730 E-0.25047
G1 X81.135 Y98.160 E-0.25055
G1 X81.030 Y98.342 E-0.11681
;WIPE_END
G1 E-0.04800 F4200.000
G1 Z0.400 F9000.000
G1 X79.426 Y104.913
G1 Z0.200
G1 E3.20000 F2400.000
M204 S800
;TYPE:Perimeter
G1 F1200.000
G1 X79.945 Y105.023 E0.01666
G1 X80.431 Y105.239 E0.01666
G1 X80.861 Y105.551 E0.01666
G1 X81.216 Y105.946 E0.01666
G1 X81.482 Y106.406 E0.01666
G1 X81.646 Y106.912 E0.01666
G1 X81.701 Y107.440 E0.01666
G1 X81.646 Y107.968 E0.01666
G1 X81.482 Y108.474 E0.01666
G1 X81.216 Y108.934 E0.01666
G1 X80.861 Y109.329 E0.01666
G1 X80.431 Y109.641 E0.01666
G1 X79.945 Y109.857 E0.01666
G1 X79.426 Y109.968 E0.01666
G1 X78.894 Y109.968 E0.01666
G1 X78.375 Y109.857 E0.01666
G1 X77.889 Y109.641 E0.01666
G1 X77.459 Y109.329 E0.01666
G1 X77.104 Y108.934 E0.01666
G1 X76.838 Y108.474 E0.01666
G1 X76.674 Y107.968 E0.01666
G1 X76.619 Y107.440 E0.01666
G1 X76.674 Y106.912 E0.01666
G1 X76.838 Y106.406 E0.01666
G1 X77.104 Y105.946 E0.01666
G1 X77.459 Y105.551 E0.01666
G1 X77.889 Y105.239 E0.01666
G1 X78.375 Y105.023 E0.01666
G1 X78.894 Y104.913 E0.01666
G1 X79.366 Y104.913 E0.01478
M204 S1250
G1 X79.366 Y105.290 F9000.000
M204 S800
;TYPE:External perimeter
G1 F1200.000
G1 X79.828 Y105.384 E0.01480
G1 X80.241 Y105.568 E0.01417
G1 X80.607 Y105.833 E0.01417
G1 X80.909 Y106.169 E0.01417
G1 X81.135 Y106.561 E0.01417
G1 X81.275 Y106.991 E0.01418
G1 X81.322 Y107.440 E0.01417
G1 X81.275 Y107.890 E0.01417
G1 X81.135 Y108.320 E0.01418
G1 X80.909 Y108.711 E0.01417
G1 X80.607 Y109.047 E0.01417
G1 X80.241 Y109.313 E0.01417
G1 X79.828 Y109.496 E0.01417
G1 X79.386 Y109.591 E0.01417
G1 X78.934 Y109.591 E0.01417
G1 X78.492 Y109.496 E0.01417
G1 X78.079 Y109.313 E0.01417
G1 X77.713 Y109.047 E0.01417
G1 X77.411 Y108.711 E0.01417
G1 X77.185 Y108.320 E0.01417
G1 X77.045 Y107.890 E0.01418
G1 X76.998 Y107.440 E0.01417
G1 X77.045 Y106.991 E0.01417
G1 X77.185 Y106.561 E0.01418
G1 X77.411 Y106.169 E0.01417
G1 X77.713 Y105.833 E0.01417
G1 X78.079 Y105.568 E0.01417
G1 X78.492 Y105.384 E0.01417
G1 X78.934 Y105.290 E0.01417
G1 X79.306 Y105.290 E0.01165
M204 S1250
G1 X79.599 Y104.965 F9000.000
G1 E-2.24000 F4200.000
;WIPE_START
G1 F7200.000
G1 X79.828 Y105.384 E-0.29423
G1 X80.241 Y105.568 E-0.25047
G1 X80.607 Y105.833 E-0.25050
G1 X80.748 Y105.990 E-0.11679
;WIPE_END
G1 E-0.04800 F4200.000
G1 Z0.400 F9000.000
G1 X79.426 Y115.073
G1 Z0.200
G1 E3.20000 F2400.000
M204 S800
;TYPE:Perimeter
G1 F1200.000
G1 X79.945 Y115.183 E0.01666
G1 X80.431 Y115.399 E0.01666
G1 X80.861 Y115.711 E0.01666
G1 X81.216 Y116.106 E0.01666
G1 X81.482 Y116.566 E0.01666
G1 X81.646 Y117.072 E0.01666
G1 X81.701 Y117.600 E0.01666
G1 X81.646 Y118.128 E0.01666
G1 X81.482 Y118.634 E0.01666
G1 X81.216 Y119.094 E0.01666
G1 X80.861 Y119.489 E0.01666
G1 X80.431 Y119.801 E0.01666
G1 X79.945 Y120.017 E0.01666
G1 X79.426 Y120.128 E0.01666
G1 X78.894 Y120.128 E0.01666
G1 X78.375 Y120.017 E0.01666
G1 X77.889 Y119.801 E0.01666
G1 X77.459 Y119.489 E0.01666
G1 X77.104 Y119.094 E0.01666
G1 X76.838 Y118.634 E0.01666
G1 X76.674 Y118.128 E0.01666
G1 X76.619 Y117.600 E0.01666
G1 X76.674 Y117.072 E0.01666
G1 X76.838 Y116.566 E0.01666
G1 X77.104 Y116.106 E0.01666
G1 X77.459 Y115.711 E0.01666
G1 X77.889 Y115.399 E0.01666
G1 X78.375 Y115.183 E0.01666
G1 X78.894 Y115.073 E0.01666
G1 X79.366 Y115.073 E0.01478
M204 S1250
G1 X79.366 Y115.450 F9000.000
M204 S800
;TYPE:External perimeter
G1 F1200.000
G1 X79.828 Y115.544 E0.01480
G1 X80.241 Y115.728 E0.01417
G1 X80.607 Y115.993 E0.01417
G1 X80.909 Y116.329 E0.01417
G1 X81.135 Y116.721 E0.01417
G1 X81.275 Y117.151 E0.01418
G1 X81.322 Y117.600 E0.01417
G1 X81.275 Y118.050 E0.01417
G1 X81.135 Y118.480 E0.01418
G1 X80.909 Y118.871 E0.01417
G1 X80.607 Y119.207 E0.01417
G1 X80.241 Y119.473 E0.01417
G1 X79.828 Y119.656 E0.01417
G1 X79.386 Y119.751 E0.01417
G1 X78.934 Y119.751 E0.01417
G1 X78.492 Y119.656 E0.01417
G1 X78.079 Y119.473 E0.01417
G1 X77.713 Y119.207 E0.01417
G1 X77.411 Y118.871 E0.01417
G1 X77.185 Y118.480 E0.01417
G1 X77.045 Y118.050 E0.01418
G1 X76.998 Y117.600 E0.01417
G1 X77.045 Y117.151 E0.01417
G1 X77.185 Y116.721 E0.01418
G1 X77.411 Y116.329 E0.01417
G1 X77.713 Y115.993 E0.01417
G1 X78.079 Y115.728 E0.01417
G1 X78.492 Y115.544 E0.01417
G1 X78.934 Y115.450 E0.01417
G1 X79.306 Y115.450 E0.01165
M204 S1250
G1 X79.599 Y115.125 F9000.000
G1 E-2.24000 F4200.000
;WIPE_START
G1 F7200.000
G1 X79.828 Y115.544 E-0.29423
G1 X80.241 Y115.728 E-0.25047
G1 X80.607 Y115.993 E-0.25050
G1 X80.748 Y116.150 E-0.11679
;WIPE_END
G1 E-0.04800 F4200.000
G1 Z0.400 F9000.000
G1 X71.486 Y117.072
G1 Z0.200
G1 E3.20000 F2400.000
M204 S800
;TYPE:Perimeter
G1 F1200.000
G1 X71.541 Y117.600 E0.01666
G1 X71.486 Y118.128 E0.01666
G1 X71.322 Y118.634 E0.01666
G1 X71.056 Y119.094 E0.01666
G1 X70.701 Y119.489 E0.01666
G1 X70.271 Y119.801 E0.01666
G1 X69.785 Y120.017 E0.01666
G1 X69.266 Y120.128 E0.01666
G1 X68.734 Y120.128 E0.01666
G1 X68.215 Y120.017 E0.01666
G1 X67.729 Y119.801 E0.01666
G1 X67.299 Y119.489 E0.01666
G1 X66.944 Y119.094 E0.01666
G1 X66.678 Y118.634 E0.01666
G1 X66.514 Y118.128 E0.01666
G1 X66.459 Y117.600 E0.01666
G1 X66.514 Y117.072 E0.01666
G1 X66.678 Y116.566 E0.01666
G1 X66.944 Y116.106 E0.01666
G1 X67.299 Y115.711 E0.01666
G1 X67.729 Y115.399 E0.01666
G1 X68.215 Y115.183 E0.01666
G1 X68.734 Y115.073 E0.01666
G1 X69.266 Y115.073 E0.01666
G1 X69.785 Y115.183 E0.01666
G1 X70.271 Y115.399 E0.01666
G1 X70.701 Y115.711 E0.01666
G1 X71.056 Y116.106 E0.01666
G1 X71.322 Y116.566 E0.01666
G1 X71.467 Y117.015 E0.01478
M204 S1250
G1 X71.109 Y117.131 F9000.000
M204 S800
;TYPE:External perimeter
G1 F1200.000
G1 X71.162 Y117.600 E0.01480
G1 X71.115 Y118.050 E0.01417
G1 X70.975 Y118.480 E0.01418
G1 X70.749 Y118.871 E0.01417
G1 X70.447 Y119.207 E0.01417
G1 X70.081 Y119.473 E0.01417
G1 X69.668 Y119.656 E0.01417
G1 X69.226 Y119.751 E0.01417
G1 X68.774 Y119.751 E0.01417
G1 X68.332 Y119.656 E0.01417
G1 X67.919 Y119.473 E0.01417
G1 X67.553 Y119.207 E0.01417
G1 X67.251 Y118.871 E0.01417
G1 X67.025 Y118.480 E0.01417
G1 X66.885 Y118.050 E0.01418
G1 X66.838 Y117.600 E0.01417
G1 X66.885 Y117.151 E0.01417
G1 X67.025 Y116.721 E0.01418
G1 X67.251 Y116.329 E0.01417
G1 X67.553 Y115.993 E0.01417
G1 X67.919 Y115.728 E0.01417
G1 X68.332 Y115.544 E0.01417
G1 X68.774 Y115.450 E0.01417
G1 X69.226 Y115.450 E0.01417
G1 X69.668 Y115.544 E0.01417
G1 X70.081 Y115.728 E0.01417
G1 X70.447 Y115.993 E0.01417
G1 X70.749 Y116.329 E0.01417
G1 X70.975 Y116.721 E0.01417
G1 X71.090 Y117.074 E0.01166
M204 S1250
G1 X71.490 Y117.252 F9000.000
G1 E-2.24000 F4200.000
;WIPE_START
G1 F7200.000
G1 X71.162 Y117.600 E-0.29419
G1 X71.115 Y118.050 E-0.25048
G1 X70.975 Y118.480 E-0.25053
G1 X70.870 Y118.662 E-0.11680
;WIPE_END
G1 E-0.04800 F4200.000
G1 Z0.400 F9000.000
G1 X69.785 Y109.857
G1 Z0.200
G1 E3.20000 F2400.000
M204 S800
;TYPE:Perimeter
G1 F1200.000
G1 X69.266 Y109.968 E0.01666
G1 X68.734 Y109.968 E0.01666
G1 X68.215 Y109.857 E0.01666
G1 X67.729 Y109.641 E0.01666
G1 X67.299 Y109.329 E0.01666
G1 X66.944 Y108.934 E0.01666
G1 X66.678 Y108.474 E0.01666
G1 X66.514 Y107.968 E0.01666
G1 X66.459 Y107.440 E0.01666
G1 X66.514 Y106.912 E0.01666
G1 X66.678 Y106.406 E0.01666
G1 X66.944 Y105.946 E0.01666
G1 X67.299 Y105.551 E0.01666
G1 X67.729 Y105.239 E0.01666
G1 X68.215 Y105.023 E0.01666
G1 X68.734 Y104.913 E0.01666
G1 X69.266 Y104.913 E0.01666
G1 X69.785 Y105.023 E0.01666
G1 X70.271 Y105.239 E0.01666
G1 X70.701 Y105.551 E0.01666
G1 X71.056 Y105.946 E0.01666
G1 X71.322 Y106.406 E0.01666
G1 X71.486 Y106.912 E0.01666
G1 X71.541 Y107.440 E0.01666
G1 X71.486 Y107.968 E0.01666
G1 X71.322 Y108.474 E0.01666
G1 X71.056 Y108.934 E0.01666
G1 X70.701 Y109.329 E0.01666
G1 X70.271 Y109.641 E0.01666
G1 X69.840 Y109.833 E0.01477
M204 S1250
G1 X69.687 Y109.488 F9000.000
M204 S800
;TYPE:External perimeter
G1 F1200.000
G1 X69.226 Y109.591 E0.01480
G1 X68.774 Y109.591 E0.01417
G1 X68.332 Y109.496 E0.01417
G1 X67.919 Y109.313 E0.01417
G1 X67.553 Y109.047 E0.01417
G1 X67.251 Y108.711 E0.01417
G1 X67.025 Y108.320 E0.01417
G1 X66.885 Y107.890 E0.01418
G1 X66.838 Y107.440 E0.01417
G1 X66.885 Y106.991 E0.01417
G1 X67.025 Y106.561 E0.01418
G1 X67.251 Y106.169 E0.01417
G1 X67.553 Y105.833 E0.01417
G1 X67.919 Y105.568 E0.01417
G1 X68.332 Y105.384 E0.01417
G1 X68.774 Y105.290 E0.01417
G1 X69.226 Y105.290 E0.01417
G1 X69.668 Y105.384 E0.01417
G1 X70.081 Y105.568 E0.01417
G1 X70.447 Y105.833 E0.01417
G1 X70.749 Y106.169 E0.01417
G1 X70.975 Y106.561 E0.01417
G1 X71.115 Y106.991 E0.01418
G1 X71.162 Y107.440 E0.01417
G1 X71.115 Y107.890 E0.01417
G1 X70.975 Y108.320 E0.01418
G1 X70.749 Y108.711 E0.01417
G1 X70.447 Y109.047 E0.01417
G1 X70.081 Y109.313 E0.01417
G1 X69.742 Y109.464 E0.01165
M204 S1250
G1 X69.606 Y109.880 F9000.000
G1 E-2.24000 F4200.000
;WIPE_START
G1 F7200.000
G1 X69.226 Y109.591 E-0.29423
G1 X68.774 Y109.591 E-0.25053
G1 X68.332 Y109.496 E-0.25050
G1 X68.139 Y109.411 E-0.11674
;WIPE_END
G1 E-0.04800 F4200.000
G1 Z0.400 F9000.000
G1 X69.266 Y99.808
M73 P0 R93
G1 Z0.200
G1 E3.20000 F2400.000
M204 S800
;TYPE:Perimeter
G1 F1200.000
G1 X68.734 Y99.808 E0.01666
G1 X68.215 Y99.697 E0.01666
G1 X67.729 Y99.481 E0.01666
G1 X67.299 Y99.169 E0.01666
G1 X66.944 Y98.774 E0.01666
G1 X66.678 Y98.314 E0.01666
G1 X66.514 Y97.808 E0.01666
G1 X66.459 Y97.280 E0.01666
G1 X66.514 Y96.752 E0.01666
G1 X66.678 Y96.246 E0.01666
G1 X66.944 Y95.786 E0.01666
G1 X67.299 Y95.391 E0.01666
